!!!OTL: 925. Sipp, sapp, Sunne.
!!!ARE: Europa, Mitteleuropa, Deutschland, Paderborn
!!!SCT: K0925
!!!TXL: @@KHS
!!!YEM: Copyright 1995, estate of Helmut Schaffrath.
**kern	**text
*clefG2	*
*M2/4	*
*k[f#]	*
*G:	*
=1	=1
{4b/	Sipp,
4a	ſapp,
=2	=2
4g	Sun-
8d}	-ne,
{16d	mi-
16d	-ne
=3	=3
8b	Meu-
8b	-me
8a	is
8a	ne
=4	=4
4g	Run-
8d}	-ne,
{8d	min
=5	=5
8b	Vo-
8b	-er
8a	is
8a	en
=6	=6
4g	Pa-
4d}	-pen,
=7	=7
{8d	kann
8d	ſo
8d	ſchö-
8d	-ne
=8	=8
8b	Flö-
8b	-ten-
8a	-pi-
8a	-pen
=9	=9
4g	mo-
4d}	-aken.
==	==
!!!AGN: Kinder - Lied, Pflanzen
!!!ONB: ESAC (Essen Associative Code) Database: KINDER
!!!AMT: simple duple
!!!AIN: vox
!!!EED: Helmut Schaffrath
!!!EEV: 1.0
!!Jm Paderbornschen 1840 ueblich, mitgetheilt durch Herrn Fiege.
!!!GTL: VI. Das Kind im Verkehr mit der Natur. B. Verkehr mit der Pflanzenwelt.
!!!URL-scan: https://archive.org/details/DeutschesKinderliedUndKinderspiel/page/187/mode/1up
!!!ENC: Anna Maria Matuszewska
!!!EEV: 2024/30/08
*-	*-
